X:4
T:RVW2/2/4 On the Banks Of Invaree
C:Mr. Broomfield, Herongate, Essex, 22 February 1904
L:1/4
Q:1/4=120
M:4/4
I:linebreak $
K:F
"^(Editorial suggestion)  " c | B3/2 A/ F G | (A B) c c | B A F E |$ F3 (F/G/) | A3/2 B/ c f | 
w: A-|broad as I was|walk- * ing a-|long as I did|pass a- *|long the banks of|
c d e f | d c (B/c/)(d/e/) |$ c3 c | e c f/f/(e/d/) | c3/2 d/ e f | d c (B/c/)(d/e/) |$ 
w: In- va- ree I|spied a come- * ly _|lass. Her|hair hung o- ver her _|shoul- ders broad her|eyes like stars _ did _|
c2 F3/2 G/ | A3/2 B/ c d |[M:3/2] B (G/F/) E A F E |[M:4/4] F3 |] 
w: shine. On the|banks of In- va-|ree I _ wish she had been|mine.|



